svgs/google_opinion_rewards.svg

<svg width="24" height="24" viewBox="0 0 24 24" fill="none" xmlns="http://www.w3.org/2000/svg">
<path fill-rule="evenodd" clip-rule="evenodd" d="M5.67347 3H18.3265V5.4H22V8.3382C22 11.0088 19.9922 13.2165 17.3854 13.5707C16.502 15.0116 15.0654 16.0714 13.3744 16.4491V18.6647H14.7962C16.0526 18.6647 17.0711 19.6684 17.0711 20.9066V21H6.83412V20.9066C6.83412 19.6684 7.85262 18.6647 9.109 18.6647H10.5308V16.4271C8.88095 16.0316 7.48149 14.9846 6.61459 13.5707C4.00777 13.2165 2 11.0088 2 8.3382V5.4H5.67347V3ZM18.3265 10.2221C18.3265 10.6168 18.291 11.0031 18.2229 11.378C19.339 10.8128 20.1043 9.66502 20.1043 8.3382V7.26826H18.3265V10.2221ZM5.67347 10.2221V7.26826H3.89573V8.3382C3.89573 9.66502 4.66098 10.8128 5.77712 11.378C5.70904 11.0031 5.67347 10.6168 5.67347 10.2221ZM14.1441 12.2L12 10.9436L9.85592 12.2L10.4214 9.832L8.53061 8.23874L11.0251 8.02989L12 5.8L12.9749 8.02989L15.4694 8.23874L13.5751 9.832L14.1441 12.2Z" fill="white"/>
</svg>

<svg xmlns="http://www.w3.org/2000/svg" width="24" height="24" fill="none" viewBox="0 0 24 24"><path fill="#fff" fill-rule="evenodd" d="M5.673 3h12.654v2.4H22v2.938c0 2.67-2.008 4.879-4.615 5.233a6.337 6.337 0 0 1-4.01 2.878v2.216h1.421c1.257 0 2.275 1.003 2.275 2.242V21H6.834v-.093c0-1.239 1.019-2.242 2.275-2.242h1.422v-2.238a6.34 6.34 0 0 1-3.916-2.856C4.008 13.217 2 11.009 2 8.338V5.4h3.673zm12.654 7.222c0 .395-.036.781-.104 1.156a3.409 3.409 0 0 0 1.881-3.04v-1.07h-1.777v2.954m-12.654 0V7.268H3.896v1.07c0 1.327.765 2.475 1.881 3.04a6.465 6.465 0 0 1-.104-1.156m8.471 1.978L12 10.944 9.856 12.2l.565-2.368-1.89-1.593 2.494-.21L12 5.8l.975 2.23 2.494.209-1.894 1.593.57 2.368" clip-rule="evenodd"/></svg>
